X:098
T:Miller of Droan TS.098
T:Miller of Drone,aka TS.098
M:C
L:1/8
Q:1/2=70
S:Thomas Sands’ MS,1810,Lincolnshire
R:strathspey
O:England;Lincolnshire
Z:vmp.Ruairidh Greig, 2011
K:A
(c/B/)|A<FF>A E>FEC|A,A, d>c cBB c/B/|A<FF>A E>FEC|DF EF/G/A3(c/B/)|
A<FF>A E>FEC|A,A, d>c cBB c/d/|e>Bc>G A>EF>D|DF EF/G/A2:|
|:f|e<cc>a ee f/e/d/c/|e<cc>af2fg/a/|e<cc>a ee f/e/d/c/|d>Bc>A A<FF>f|
f<cc>a ee f/e/d/c/|e<cc>af3g|(3agf (3efg (3aed (3cBA|d>Bc>A A<FF:|]

